static/sparkles.svg

<svg width="32" height="32" fill="none" xmlns="http://www.w3.org/2000/svg"><path d="M10.5194 7.0517c-.2929-.12106-.52314-.35309-.63823-.63556L8.929 4.25725c-.17788-.343-.69058-.343-.858 0l-.95217 2.15889c-.12556.28247-.35575.50441-.63826.63556l-1.21375.52459c-.35576.1715-.35576.66583 0 .83733l1.21375.52459c.29297.12106.52317.35309.63826.63556L8.071 11.7427c.17788.3431.69058.3431.858 0l.95217-2.16893c.12553-.28247.35573-.50441.63823-.63556l1.2138-.52459c.3557-.1715.3557-.66583 0-.83733l-1.2138-.52459Z" fill="#212121"/><path d="M25.5744 13.5546c-.8699-.3873-1.5578-1.1007-1.9219-1.9771l-2.8628-6.76727c-.526-1.08031-2.0534-1.08031-2.5794 0l-2.8628 6.76727c-.3742.8764-1.0621 1.5898-1.9219 1.9771l-3.62141 1.6409c-1.07225.5299-1.07225 2.0791 0 2.609l3.62141 1.6409c.8699.3873 1.5578 1.1007 1.9219 1.9771l2.8628 6.7673c.526 1.0803 2.0534 1.0803 2.5794 0l2.8628-6.7673c.3742-.8764 1.0621-1.5898 1.9219-1.9771l3.6214-1.6409c1.0723-.5299 1.0723-2.0791 0-2.609l-3.6214-1.6409Z" fill="#212121"/><path d="M8.2811 20.3304c.16063.3918.45355.6954.82205.8717l1.54965.7249c.4629.2351.4629.9109 0 1.146l-1.54965.7249c-.3685.1763-.66142.4897-.82205.8717l-1.22834 2.9778c-.22678.4701-.87874.4701-1.10552 0L4.7189 24.6696c-.16063-.3918-.45355-.6954-.82205-.8717l-1.54961-.7249c-.46299-.2351-.46299-.9109 0-1.146l1.54961-.7249c.3685-.1763.66142-.4897.82205-.8717l1.22834-2.9778c.22678-.4701.87874-.4701 1.10552 0l1.22834 2.9778Z" fill="#212121"/></svg>

<svg width="32" height="32" viewBox="0 0 32 32" fill="none" xmlns="http://www.w3.org/2000/svg">
<path d="M10.5194 7.0517C10.2265 6.93064 9.99626 6.69861 9.88117 6.41614L8.929 4.25725C8.75112 3.91425 8.23842 3.91425 8.071 4.25725L7.11883 6.41614C6.99327 6.69861 6.76308 6.92055 6.48057 7.0517L5.26682 7.57629C4.91106 7.74779 4.91106 8.24212 5.26682 8.41362L6.48057 8.93821C6.77354 9.05927 7.00374 9.2913 7.11883 9.57377L8.071 11.7427C8.24888 12.0858 8.76158 12.0858 8.929 11.7427L9.88117 9.57377C10.0067 9.2913 10.2369 9.06936 10.5194 8.93821L11.7332 8.41362C12.0889 8.24212 12.0889 7.74779 11.7332 7.57629L10.5194 7.0517Z" fill="#212121"/>
<path d="M25.5744 13.5546C24.7045 13.1673 24.0166 12.4539 23.6525 11.5775L20.7897 4.81023C20.2637 3.72992 18.7363 3.72992 18.2103 4.81023L15.3475 11.5775C14.9733 12.4539 14.2854 13.1673 13.4256 13.5546L9.80419 15.1955C8.73194 15.7254 8.73194 17.2746 9.80419 17.8045L13.4256 19.4454C14.2955 19.8327 14.9834 20.5461 15.3475 21.4225L18.2103 28.1898C18.7363 29.2701 20.2637 29.2701 20.7897 28.1898L23.6525 21.4225C24.0267 20.5461 24.7146 19.8327 25.5744 19.4454L29.1958 17.8045C30.2681 17.2746 30.2681 15.7254 29.1958 15.1955L25.5744 13.5546Z" fill="#212121"/>
<path d="M8.2811 20.3304C8.44173 20.7222 8.73465 21.0258 9.10315 21.2021L10.6528 21.927C11.1157 22.1621 11.1157 22.8379 10.6528 23.073L9.10315 23.7979C8.73465 23.9742 8.44173 24.2876 8.2811 24.6696L7.05276 27.6474C6.82598 28.1175 6.17402 28.1175 5.94724 27.6474L4.7189 24.6696C4.55827 24.2778 4.26535 23.9742 3.89685 23.7979L2.34724 23.073C1.88425 22.8379 1.88425 22.1621 2.34724 21.927L3.89685 21.2021C4.26535 21.0258 4.55827 20.7124 4.7189 20.3304L5.94724 17.3526C6.17402 16.8825 6.82598 16.8825 7.05276 17.3526L8.2811 20.3304Z" fill="#212121"/>
</svg>
